resources/godot_icons/light/Tree.svg

<svg height="16" viewBox="0 0 16 16" width="16" xmlns="http://www.w3.org/2000/svg"><path d="m1 1v13c.0000552.55226.44774.99994 1 1h13v-2h-12v-6h2v3c.0000552.55226.44774.99994 1 1h9v-2h-8v-2h8v-2h-12v-2h12v-2z" fill="#29d739"/></svg>

<svg height="16" viewBox="0 0 16 16" width="16" xmlns="http://www.w3.org/2000/svg"><path d="M1 1v13a1 1 0 0 0 1 1h13v-2H3V7h2v3a1 1 0 0 0 1 1h9V9H7V7h8V5H3V3h12V1z" fill="#29d739"/></svg>
